icons/Papirus-ZorinGreen-light/16x16/panel/zim-panel.svg

<svg xmlns="http://www.w3.org/2000/svg" width="16" height="16" version="1.1">
 <defs>
  <style id="current-color-scheme" type="text/css">
   .ColorScheme-Text { color:#373E4D; } .ColorScheme-Highlight { color:#4285f4; }
  </style>
 </defs>
 <path style="opacity:0.3;fill:currentColor" class="ColorScheme-Text" d="M 8.0003082,0 C 3.5686715,0 9.6398098e-4,3.568 9.6398098e-4,8 c 0,0.836914 0.12897292902,1.643302 0.36520446902,2.400391 0.00427,-0.01736 0.00533,-0.03544 0.009769,-0.05274 C 0.52081147,9.782833 0.80020947,9.197356 1.2996896,8.734375 1.8870563,8.190112 2.570356,8.042871 3.2780432,8.03125 3.3951615,7.783736 3.4890822,7.520308 3.7233191,7.347656 3.821247,7.275476 3.9288076,7.304956 4.0338405,7.257816 4.0468135,7.230626 4.03976,7.232646 4.0553228,7.203126 4.3387471,6.665601 4.7089446,6.259906 5.2270981,5.6757812 5.9340491,4.8787995 7.0318636,4.1397273 8.0491322,3.4785156 9.0668808,2.8168902 9.857351,2.3522199 10.18177,2.1855469 10.077672,2.2394359 10.495131,2.0065837 10.896555,1.78125 11.230329,1.5938912 11.664302,1.3608521 12.097628,1.1328125 10.89947,0.418523 9.5021301,0 8.0003082,0 Z M 15.364939,4.8652343 C 15.072717,5.259055 14.775798,5.6506334 14.540788,5.9511719 14.26513,6.303624 14.005079,6.635382 14.038875,6.589844 l 0,0.002 C 13.824536,6.879643 13.239396,7.57937 12.423774,8.4688 11.609663,9.356581 10.702128,10.315135 9.7970359,10.882862 9.2009578,11.256655 8.7505717,11.376058 8.271771,11.558644 8.1959272,11.982326 8.0085635,12.382471 7.637057,12.6563 7.4074948,12.825502 7.1283717,12.809732 6.8617295,12.851612 6.7365318,13.305291 6.5185887,13.759018 6.1254619,14.160206 l -0.019528,0.01953 -0.019528,0.01953 c -0.5422322,0.496323 -1.205246,0.719805 -1.8221162,0.791015 l -0.054683,0.0059 -0.056636,0 c -0.015927,6.8e-5 -0.025274,-4.8e-5 -0.041013,0 C 5.2619671,15.634361 6.5867621,16 8.0003082,16 c 4.4316368,0 7.9993448,-3.568 7.9993448,-8 0,-1.114223 -0.22669,-2.1727251 -0.634714,-3.1347657 z"/>
 <path style="fill:currentColor;fill-rule:evenodd" class="ColorScheme-Text" d="m 15.173548,1.0078125 c -0.308773,-0.034509 -0.602567,0.082641 -0.884693,0.1816406 l 0,0.00391 c -0.441611,0.1726001 -0.967691,0.4269594 -1.484253,0.6933594 -0.516564,0.2664 -1.022545,0.543725 -1.417852,0.765625 -0.395308,0.2219 -0.691752,0.393775 -0.746033,0.421875 C 10.465456,3.1642225 9.5869531,3.67091 8.5940095,4.31641 7.6010669,4.9618062 6.5191026,5.7265437 5.9750837,6.339844 5.7057725,6.643444 5.4951993,6.883372 5.3227934,7.101563 c 0.3378724,0.109938 0.6464304,0.317035 0.869069,0.61914 l 1.818211,2.466797 c 0.1006148,0.136527 0.171294,0.286022 0.2265434,0.439453 0.2895123,-0.145687 0.6039115,-0.325096 1.0292127,-0.591797 0.6993906,-0.4387 1.6268975,-1.375487 2.4216765,-2.242187 0.794779,-0.8667 1.431774,-1.641828 1.548701,-1.7988284 0.03934,-0.053 0.245438,-0.3103031 0.517536,-0.6582031 0.272097,-0.348 0.615384,-0.7953063 0.951094,-1.2539063 0.335709,-0.4587 0.662973,-0.9290781 0.904223,-1.3300781 0.120624,-0.2006 0.220318,-0.3831687 0.289039,-0.5429688 0.06872,-0.1596998 0.116839,-0.2900937 0.09765,-0.4335937 -0.03191,-0.2386 -0.152065,-0.3787719 -0.222638,-0.4511719 -0.0016,-0.0014 -0.0095,-0.011719 -0.0098,-0.011719 C 15.679231,1.2112997 15.585512,1.1475091 15.487945,1.099609 15.381619,1.048259 15.276443,1.019315 15.173518,1.007812 Z M 4.8853292,8.009766 C 4.6917471,7.980456 4.4878063,8.026456 4.3170164,8.152344 3.9754367,8.404115 3.9031694,8.881049 4.1549204,9.222656 l 1.8162573,2.466797 c 0.2517512,0.341608 0.7305979,0.413881 1.0721779,0.162109 0.34158,-0.251771 0.4138471,-0.728704 0.1620958,-1.070312 L 5.3872413,8.314453 C 5.2613658,8.143649 5.0789115,8.039076 4.8853292,8.009766 Z M 3.0378245,9.033203 c -0.4158921,0.06177 -0.822863,0.217195 -1.0585071,0.435547 -0.323219,0.2996 -0.5263701,0.704553 -0.6347136,1.126953 -0.1779531,0.6935 -0.1899034,1.690434 -0.3261451,2.427734 -0.0676715,0.366 -0.37682113,0.935629 -0.9530469,1.673828 -0.14717674,0.247301 0,0.279297 0,0.279297 0.08260923,0.058 0.23317559,-2.03e-4 0.30856851,-0.0332 C 1.7073682,13.846759 2.5882029,14.002794 4.1490615,13.996094 4.6081803,13.943094 5.0622789,13.779837 5.4106768,13.460937 5.6370419,13.22993 5.7619983,13.027321 5.8520469,12.826172 5.5879152,12.706577 5.347728,12.52904 5.1665562,12.283203 L 3.3483458,9.816406 C 3.1741016,9.579969 3.0776682,9.309407 3.0378245,9.033203 Z"/>
</svg>

<svg xmlns="http://www.w3.org/2000/svg" width="16" height="16" version="1.1">
 <defs>
  <style id="current-color-scheme" type="text/css">
   .ColorScheme-Text { color:#373e4d; } .ColorScheme-Highlight { color:#4285f4; }
  </style>
 </defs>
 <path style="opacity:0.3;fill:currentColor" class="ColorScheme-Text" d="M 8.001,0 C 3.569,0 0.001,3.568 0.001,8 0.001,8.837 0.1299,9.643 0.3662,10.4 L 0.376,10.348 C 0.5209,9.783 0.8003,9.197 1.2998,8.734 1.8872,8.19 2.5706,8.043 3.2783,8.031 3.3954,7.784 3.4894,7.52 3.7236,7.348 3.8216,7.275 3.9291,7.305 4.0342,7.258 L 4.0557,7.203 C 4.3391,6.666 4.7093,6.26 5.2275,5.6758 5.9345,4.8788 7.032,4.1397 8.05,3.4785 9.068,2.8169 12.099,1.1328 12.099,1.1328 10.9,0.4185 9.503,0 8.001,0 Z M 15.366,4.8652 C 15.366,4.8652 13.24,7.579 12.425,8.469 11.611,9.357 10.703,10.315 9.798,10.883 9.202,11.257 8.751,11.376 8.272,11.559 8.197,11.982 8.009,12.382 7.638,12.656 7.408,12.826 7.129,12.81 6.862,12.852 6.737,13.305 6.519,13.759 6.126,14.16 L 6.106,14.18 6.087,14.199 C 5.5446,14.696 4.8816,14.919 4.2646,14.99 L 4.1123,14.996 C 5.2624,15.634 6.587,16 8.001,16 12.433,16 16.001,12.432 16.001,8 16.001,6.886 15.774,5.8273 15.366,4.8652 Z"/>
 <path style="fill:currentColor" class="ColorScheme-Text" d="M 15.175,1.0078 C 14.866,0.9733 14.572,1.0905 14.29,1.1895 14.29,1.1895 13.322,1.6203 12.806,1.8867 12.289,2.1531 11.783,2.4304 11.388,2.6523 10.992,2.8742 9.588,3.6709 8.595,4.3164 7.602,4.9618 6.52,5.7265 5.9756,6.34 5.7062,6.643 5.4956,6.883 5.3232,7.102 5.6611,7.212 5.9697,7.419 6.192,7.721 L 8.011,10.188 C 8.111,10.324 8.182,10.474 8.237,10.627 8.527,10.481 8.841,10.302 9.267,10.035 9.966,9.596 10.894,8.66 11.688,7.793 12.483,6.926 13.483,5.6838 13.755,5.3359 14.027,4.9879 14.37,4.5406 14.706,4.082 15.042,3.6233 15.369,3.153 15.61,2.752 15.731,2.5514 15.831,2.3688 15.899,2.209 15.968,2.0493 16.016,1.9189 15.997,1.7754 15.965,1.5368 15.845,1.3966 15.774,1.3242 L 15.765,1.3125 C 15.681,1.2113 15.587,1.1475 15.489,1.0996 15.383,1.0483 15.278,1.0193 15.175,1.0078 Z M 4.8857,8.01 C 4.6921,7.98 4.4882,8.026 4.3174,8.152 3.9758,8.404 3.9035,8.881 4.1553,9.223 L 5.9717,11.689 C 6.223,12.031 6.702,12.103 7.044,11.852 7.386,11.6 7.458,11.123 7.206,10.781 L 5.3877,8.314 C 5.2618,8.144 5.0793,8.039 4.8857,8.01 Z M 3.0381,9.033 C 2.6221,9.095 2.2151,9.25 1.9795,9.469 1.6562,9.768 1.4531,10.173 1.3447,10.596 1.1667,11.289 1.1548,12.286 1.0185,13.023 0.9509,13.389 0.6417,13.959 0.0654,14.697 -0.0818,14.945 0.0654,14.977 0.0654,14.977 0.148,15.035 0.2986,14.976 0.374,14.943 1.7075,13.847 2.5884,14.003 4.1494,13.996 4.6086,13.943 5.0627,13.78 5.4111,13.461 5.6375,13.23 5.7625,13.027 5.8525,12.826 5.5884,12.707 5.3482,12.529 5.167,12.283 L 3.3486,9.816 C 3.1744,9.58 3.0779,9.309 3.0381,9.033 Z"/>
</svg>
